X:1
T:Title
%%score { ( 1 3 6 ) | ( 2 4 5 ) }
L:1/8
Q:1/4=100
M:4/4
K:G
V:1 treble nm="Grand Piano"
V:3 treble 
V:6 treble 
V:2 bass 
V:4 bass 
V:5 bass 
V:1
 [G,B,DG]2 D>D G2 A>B | A4 z4 | B2 G>A B2 e2 | d4[K:bass] z4 | [DAc]2 [DFc]>B [DAc]2 [DFd]2 | %5
w: Adam~Geibel * * * * *|||||
 [DGB]2 [DGB]2 G,2 [B,EA][B,EG] | [A,DF]2 [DA]2 [^CE]2 [CA]2 | D2 c2 [DFB]2 [DFA]2 | %8
w: |||
 [G,B,DG]2 D>D G2 AB | A4 z4 | B2 G>A B2 e2 | d4[K:bass] z4 | [EG^c]2 [EGc]>[Gc] [DGB]2 [^CGA]2 | %13
w: |||||
 [DFd]4 z4 | [DA]2 [^CA]>[CA] [B,A]2 [CA]2 | D2 z2 [Fd]2 [GB]>[G^c] | [Fd]2 z2 [Fd]2 [GB]>[G^c] | %17
w: ||||
[M:2/4] [Fd]2 z2 |[M:4/4] d2 d>d cBAG |[M:5/4] d4 z2 z4 |[M:4/4] D2 G2 [B,DG]3 [DF] | z4 [GB]2 z2 | %22
w: |||||
 z4 d4 | [DGB]2 [DFA]2 [DGB]4 | [B,D]2 [B,DG]2 [B,DG]3 [DF] | z4 B2 z2 | %26
w: ||||
 [Fd]2 [A,EA]2 [A,FA]3 [DF] | [B,DF]2[K:bass] [G,^CE]2 [F,D]4 | d2 d2 d2 [DG]2 | z4 [GB]2 z2 | %30
w: ||||
 d2 d2 d2 [DG]2 | z4 [GB]2 z2 | [Ece]2 [Ece]2 [Ece]2 [EBd]2 | [EAc]2 [E^GB]2 c4 | %34
w: ||||
 A2 Bc [DGd]3 [DG] | [B,DG]2 [CFA]2 [B,GB]4 | e4 z4 | z4 c4 | z4 d4 |[M:7/8] G2 A2 G3 | %40
w: ||||||
[M:6/8][Q:1/4=92] G G2 G A2 | .A2 z/ d/ a/d/ G2 | G G2 G A2 |[M:5/8] d z z/ d/ a/d/G- |[M:1/8] G | %45
w: |||||
 G |[M:3/4] [G,G]2 [G,G] [G,G]2 [G,G] | [G,G]2 [G,G] [G,G]2 G | [G,DG]3 [G,CG]3 | %49
w: ||||
[M:7/8] [G,B,G]-[G,B,G]-[G,B,G]- [G,B,G]3 z |[M:3/4][Q:1/4=80] [EG]>A [CEG] .[G,CE]3 | %51
w: ||
 [EG]>A [CEG] .[G,CE]3 | [B,=Fd]2 [B,Fd] .[DFB]3 | [CEc]2 [CEc] .[CEG]3 | %54
w: |||
 [C=FA]2 [CFA][CAc]- [CAc]/[CGB]/[CFA] | [EG]>[=FA] .[EG]>g e/c/G/E/ | A2 z2 z2 | %57
w: |||
 [EG]>[=FA] .[EG]>g e/c/G/E/ | d2 d=f- f/d/B | [Ec]3 .[Ge]3 | c>G E[B,G]- [B,G]/[B,=F]/[B,D] | %61
w: ||||
[M:9/16] z/ E/G/c/e/g<c' |[M:4/4][Q:1/4=94] z8 | z2 B4[K:bass] z2 | z8[K:treble] | %65
w: ||||
[M:3/4] z2 B4[K:bass] |[M:1/4] E,2 | E2 |[M:4/4] E2 F2 ^G2 E2 | F2 ^G2 A2 [GB]2 | [A^c]4 [A^d]4 | %71
w: ||||||
 [^Ge]4 [^G,B,E]4 |[M:3/4] [A,^CF]4 [DE^G]2 |[M:1/4][Q:1/4=100] [^CA]2 |[M:4/4] [^CA]4 E2 [CA]2 | %75
w: ||||
 B4 E2 E2 | ^c2 B2 c2 [Fd]2 | ^c4 B2 A2 | A4 z4 | ^G2 A2 B2 ^c2 | ^G4 [^DF]3 E | E6 E2 | %82
w: |||||||
 e4 d2 ^c2 | d4 ^c2 c2 | B2 ^c2 [^CEA]2 [B,FB]2 | E3- [EF] E2 A2 | A2 ^G2 A2 B2 | A4 E2 ^c2 | %88
w: ||||||
 ^c2 B2 c2 [Bd]2 |[M:3/4] [A^c]4 [^GB]2 |[M:1/4] ^c2 |[M:4/4] d2 ^c2 B2 A2 | ^G4 z4 | %93
w: |||||
 [E^c]4 [DB]3 [^CA] | [^CA]6 z2 | [DA]8 | [^CA]8 |] %97
w: ||||
V:2
 G,,2 D,>D, G,2 A,>B, | A,4 z4 | [G,DG]2 [G,B,]>[G,CG] [G,DG]2 [G,CG]2 | [G,B,G]4 z4 | %4
 [F,,F,]2 [D,,D,]2 [F,,F,]2 [D,,D,]2 | [G,,G,]2 [D,,D,]2 G,,2 G,,G,, | %6
 A,,2 [A,,F,]2 [A,,G,]2 [A,,G,]2 | [D,F,]2 [EF]2 z2 C2 | G,,2 D,>D, G,2 A,B, | A,4 z4 | %10
 [G,DG]2 [G,B,]>[G,CG] [G,DG]2 [G,CG]2 | [G,B,G]4 z4 | z2 z z/ E/ A,2 A,2 | %13
 z4[K:treble] [A,DF]2 z2 | [A,,E,]2 [A,,E,]>[A,,E,] [A,,G,]2 [A,,G,]2 | %15
 [D,F,]2 z2 [D,A,]2 [D,B,]>[D,_B,] | [D,A,]2 z2 [D,A,]2 [D,B,]>[D,_B,] |[M:2/4] [D,A,]2 z2 | %18
[M:4/4][K:treble] D2 D>D CB,[K:bass]A,G, |[M:5/4] [D,F,A,D]2 [D,G,B,]2 [D,A,CD]6 | %20
[M:4/4] [G,B,]2 [G,B,D]2 G,2 z A, | B,,2 G,,2 z2 F2 | B,,2 B,,2 [C,G,]2 z[K:treble] c | %23
 D,2 D,2 G,,4 | G,2 G,2 G,2 z A, | E,2 D,2 z2 A2 | [B,,B,]2 ^C,2 D,2 z A, | G,,2 A,,2 D,4 | %28
 D2 D2 D2 B,2 | F,2 G,2 z2[K:treble] F2 | D2 D2 D2 B,2 | F,2 G,2 z2 F2 | C,2 C,2 C,2 C,2 | %33
 C,2 E,2[K:treble] [A,EA]4 | [CDF]2 [CDF]2 B,2 z[K:bass] B, | D,2 D,2 G,,4 | %36
 [CEc]2 [CE]2 [CEc]2 [B,DB]2 | [A,CA]2 [^G,B,^G]2 [CA]4 | [F,D]2 [CDF]2 [DG]3[K:bass] [B,D] | %39
[M:7/8] [D,B,D]2 [D,CD]2 [G,B,D]3 |[M:6/8] G,[K:treble] [G,B,=F]2 [G,B,F] [G,CF]2 | %41
 [G,C=F] [G,B,F]2 z3 | G, [G,B,=F]2 [G,B,F] [G,CF]2 |[M:5/8] [G,C=F] [G,B,F]2 z2 |[M:1/8] z | A, | %46
[M:3/4] =F,3 D,3 | E,4 z A, | B,,3 A,,3 |[M:7/8] z z2 =F3 z | %50
[M:3/4] z z/ =F/ .C,>[K:treble]g e/c/G/E/ | z z/ =F/ .C,>[K:treble]g e/c/G/E/ | %52
 G,,2 .G,,>[K:treble]g =f/d/B/G/ | C,2 .C,>[K:treble]g e/c/G/E/ | =F,2 F,F,- F,/F,/F, | %55
 [C,C]>[C,C] [C,C] .[C,C]3 | .[=F,C]2 [F,C=F][F,C]- [F,C]/[F,C]/[F,C] | [C,C]>[C,C] [C,C] .[C,C]3 | %58
 [G,B,=F]2 [G,B,F][G,B,D]- [G,B,D]/[G,B,F]/[G,DF] | [C,C]6 | %60
 [C,G,]2 [C,G,C][G,,G,]- [G,,G,]/[G,,G,]/[G,,=F,] |[M:9/16] z3/2 z3/2 C3/2 | %62
[M:4/4] E,2 E,2 E,2 [C,E,A,]2- | [C,E,A,][E,^G,B,E] [G,B,E]2- [G,B,E]->[E,,G,B,E] E,,2 | %64
 E,2 E,2 E,2 [C,E,A,]2- |[M:3/4] [C,E,A,][E,^G,B,E] [G,B,E]3- [G,B,E]/-[E,,G,B,E]/ |[M:1/4] E,,2 | %67
 [E,^G,]2 |[M:4/4] [E,^G,]2 [E,A,E]2 [E,B,E]2 [E,G,]2 | [E,A,E]2 [E,B,E]2 [E,^CE]2 [E,D]2 | %70
 [E,^C]4 [E,=C]4 | [E,B,]4 [D,,D,]4 |[M:3/4] [^C,,^C,]4 [B,,,B,,]2 |[M:1/4] [A,,A,]2 | %74
[M:4/4] [A,,A,]4 [^C,A,]2 [A,,A,]2 | [E,^G,E]4 [E,G,]2 [E,G,]2 | E2- [^G,B,E]2 [A,E]2 [D,A,]2 | %77
 [E,E]4- [E,^G,E]2 [F,A,^C]2 | ^C2 z2 [E,B,E]2 [B,,B,]2 | [B,E]4 z4 | [B,E]4 [B,,A,]3 [E,^G,] | %81
 [E,^G,]6 E,2 | [E,^CE]4 [E,B,E]2 [E,A,E]2 | [E,B,E]4 [E,A,E]2 [E,A,E]2 | E4 z4 | %85
 z2 z A, ^G,2[K:treble] [^CE]2 | [^CE]2 [B,E]2 [CE]2 [DE]2 | [^CE]4 [A,C]2 [A,A]2 | %88
 [A,A]2 [A,^G]2 [A,A]2[K:bass] D,2 |[M:3/4] E,4 E,2 |[M:1/4][K:treble] [A,EA]2 | %91
[M:4/4] [B,E^G]2 [A,EA]2[K:bass] [^G,E]2 [F,B,^D]2 | [B,E]4 [^C,A,]2 [D,A,]2 | %93
 [E,A,]4 [E,^G,]3 [A,,A,] | [A,,A,]6 z2 | [D,F,]8 | [A,,E,]8 |] %97
V:3
 x8 | z2 [CDF]2 [G,B,DG]2 z2 | x8 | z2[K:bass] D,2 B,,2 G,,2 | x8 | x8 | x8 | x8 | x8 | %9
 z2 [CDF]2 [G,B,DG]2 z2 | x8 | z2[K:bass] D,2 B,,2 G,,2 | x8 | z2 A,2 A2 A,2 | x8 | x8 | x8 | %17
[M:2/4] x4 |[M:4/4] x8 |[M:5/4] z2 E2 F6 |[M:4/4] x8 | [G,DG]2 [DGB]2 D2- [DA]2 | %22
 [DGd]2 [DFd]2 E2 [EA]2 | x8 | x8 | [G,B,G]2 [DGB]2 [EG]4 | x8 | x2[K:bass] x6 | x8 | %29
 [DAc]2 [DGB]2 D2- [DA]2 | x8 | [DAc]2 [DGB]2 D2- [DA]2 | x8 | x8 | x8 | x8 | z2 z e e2 d2 | %37
 c2 B2 z2 G,2 | A2 Bc z2 z G |[M:7/8] x7 |[M:6/8] x6 | z G2 z3 | x6 |[M:5/8] z G2 z2 |[M:1/8] x | %45
 x |[M:3/4] x6 | x6 | x6 |[M:7/8] x7 |[M:3/4] x6 | x6 | x6 | x6 | x6 | z2 z .E3 | %56
 z =F A[Ac]- [Ac]/[GB]/[FA] | z2 z .E3 | x6 | x6 | E2 z2 z2 |[M:9/16] C3 z3/2 | %62
[M:4/4] E2 E2 E2 [EA]2- | [EA]B z2 z z/[K:bass] E,/ E,2 | E2 E2 E2[K:treble] [EA]2- | %65
[M:3/4] [EA]B z2 z z/[K:bass] E,/ |[M:1/4] x2 | x2 |[M:4/4] x8 | x8 | x8 | x8 |[M:3/4] x6 | %73
[M:1/4] x2 |[M:4/4] x8 | x8 | x8 | x8 | z2 ^D2 ^G2 [DF]2 | x8 | x8 | x8 | x8 | x8 | x8 | %85
 [B,^G]4 z4 | x8 | x8 | x8 |[M:3/4] x6 |[M:1/4] x2 |[M:4/4] x8 | z2 D,2 [EA]2 [Fd]2 | x8 | x8 | %95
 x8 | x8 |] %97
V:4
 x8 | z2 D,2 G,,2 z2 | x8 | x8 | x8 | x8 | x8 | z4 [D,,D,]4 | x8 | z2 D,2 G,,2 z2 | x8 | x8 | %12
 z2 A,2 z4 | A,,8[K:treble] | x8 | x8 | x8 |[M:2/4] x4 |[M:4/4][K:treble] x6[K:bass] x2 | %19
[M:5/4] x10 |[M:4/4] z4 z2 D,2 | z4 D,4 | z4 z2 C,2[K:treble] | x8 | z4 z2 D,2 | z4 ^C,4 | %26
 z4 z2 F,,2 | x8 | x8 | z4 D,4[K:treble] | x8 | z4 D,4 | x8 | x4[K:treble] x4 | z4 z2 G,2[K:bass] | %35
 x8 | x8 | z4 A,2 z2 | z4 B,2 z2[K:bass] |[M:7/8] x7 |[M:6/8] x[K:treble] x5 | x6 | x6 | %43
[M:5/8] x5 |[M:1/8] x | x |[M:3/4] x6 | z2 z C,3 | x6 |[M:7/8] G,,-G,,-G,,- G,,3 z | %50
[M:3/4] [C,C]2 z .C,3[K:treble] | [C,C]2 z .C,3[K:treble] | z2 z .G,,3[K:treble] | %53
 z2 z .C,3[K:treble] | x6 | x6 | x6 | x6 | x6 | x6 | x6 |[M:9/16] [C,E,]4- [C,E,]/ |[M:4/4] x8 | %63
 z2 E,4 z2 | x8 |[M:3/4] z2 E,4 |[M:1/4] x2 | x2 |[M:4/4] x8 | x8 | x8 | x8 |[M:3/4] x6 | %73
[M:1/4] x2 |[M:4/4] x8 | x8 | A,2 z2 z4 | A,4 z4 | [F,A,]4 z4 | E,2 F,2 [^G,E]2 [A,^CE]2 | x8 | %81
 x8 | x8 | x8 | [E,^G,]2 A,2 ^C,2 D,2 | E,6[K:treble] z2 | x8 | x8 | x6[K:bass] x2 |[M:3/4] x6 | %90
[M:1/4][K:treble] x2 |[M:4/4] x4[K:bass] x4 | E,2 z2 z4 | x8 | x8 | x8 | x8 |] %97
V:5
 x8 | x8 | x8 | x8 | x8 | x8 | x8 | x8 | x8 | x8 | x8 | x8 | A,,8 | x4[K:treble] x4 | x8 | x8 | %16
 x8 |[M:2/4] x4 |[M:4/4][K:treble] x6[K:bass] x2 |[M:5/4] x10 |[M:4/4] x8 | x8 | x7[K:treble] x | %23
 x8 | x8 | x8 | x8 | x8 | x8 | x6[K:treble] x2 | x8 | x8 | x8 | x4[K:treble] x4 | x7[K:bass] x | %35
 x8 | x8 | x8 | x7[K:bass] x |[M:7/8] x7 |[M:6/8] x[K:treble] x5 | x6 | x6 |[M:5/8] x5 |[M:1/8] x | %45
 x |[M:3/4] x6 | x6 | x6 |[M:7/8] x7 |[M:3/4] x7/2[K:treble] x5/2 | x7/2[K:treble] x5/2 | %52
 x7/2[K:treble] x5/2 | x7/2[K:treble] x5/2 | x6 | x6 | x6 | x6 | x6 | x6 | x6 |[M:9/16] x9/2 | %62
[M:4/4] x8 | x8 | x8 |[M:3/4] x6 |[M:1/4] x2 | x2 |[M:4/4] x8 | x8 | x8 | x8 |[M:3/4] x6 | %73
[M:1/4] x2 |[M:4/4] x8 | x8 | x8 | x8 | x8 | x8 | x8 | x8 | x8 | x8 | x8 | x6[K:treble] x2 | x8 | %87
 x8 | x6[K:bass] x2 |[M:3/4] x6 |[M:1/4][K:treble] x2 |[M:4/4] x4[K:bass] x4 | x8 | x8 | x8 | x8 | %96
 x8 |] %97
V:6
 x8 | x8 | x8 | x2[K:bass] x6 | x8 | x8 | x8 | x8 | x8 | x8 | x8 | x2[K:bass] x6 | x8 | x8 | x8 | %15
 x8 | x8 |[M:2/4] x4 |[M:4/4] x8 |[M:5/4] x10 |[M:4/4] x8 | x8 | x8 | x8 | x8 | x8 | x8 | %27
 x2[K:bass] x6 | x8 | x8 | x8 | x8 | x8 | x8 | x8 | x8 | z2 c2 z4 | x8 | z4 z2 G,2 |[M:7/8] x7 | %40
[M:6/8] x6 | x6 | x6 |[M:5/8] x5 |[M:1/8] x | x |[M:3/4] x6 | x6 | x6 |[M:7/8] x7 |[M:3/4] x6 | %51
 x6 | x6 | x6 | x6 | x6 | x6 | x6 | x6 | x6 | x6 |[M:9/16] x9/2 |[M:4/4] x8 | x11/2[K:bass] x5/2 | %64
 x6[K:treble] x2 |[M:3/4] x11/2[K:bass] x/ |[M:1/4] x2 | x2 |[M:4/4] x8 | x8 | x8 | x8 | %72
[M:3/4] x6 |[M:1/4] x2 |[M:4/4] x8 | x8 | x8 | x8 | x8 | x8 | x8 | x8 | x8 | x8 | x8 | x8 | x8 | %87
 x8 | x8 |[M:3/4] x6 |[M:1/4] x2 |[M:4/4] x8 | x8 | x8 | x8 | x8 | x8 |] %97

